{ "compressionlevel":-1,
 "height":14,
 "infinite":false,
 "layers":[
        {
         "data":[213, 214, 0, 0, 0, 0, 0, 0, 0, 0, 0, 0, 0, 0, 58, 59,
            238, 239, 0, 0, 0, 0, 0, 0, 0, 0, 0, 0, 0, 0, 83, 84,
            58, 59, 0, 0, 0, 0, 0, 0, 0, 0, 0, 0, 0, 0, 213, 214,
            83, 84, 0, 0, 0, 0, 0, 0, 0, 0, 0, 0, 0, 0, 238, 239,
            213, 214, 0, 0, 0, 0, 0, 0, 0, 0, 0, 0, 0, 0, 58, 59,
            238, 239, 0, 0, 0, 0, 0, 0, 0, 0, 0, 0, 0, 0, 83, 84,
            58, 59, 0, 0, 0, 0, 0, 0, 0, 0, 0, 0, 0, 0, 213, 214,
            83, 84, 0, 0, 0, 0, 0, 0, 0, 0, 0, 0, 0, 0, 238, 239,
            213, 214, 0, 0, 0, 0, 0, 0, 0, 0, 0, 0, 0, 0, 58, 59,
            238, 239, 0, 0, 0, 0, 0, 0, 0, 0, 0, 0, 0, 0, 83, 84,
            27, 4, 4, 4, 4, 4, 4, 4, 4, 4, 4, 4, 4, 4, 4, 31,
            52, 29, 29, 29, 29, 29, 29, 29, 29, 29, 29, 29, 29, 29, 29, 56,
            52, 76, 76, 76, 76, 76, 76, 76, 76, 76, 76, 76, 76, 76, 76, 56,
            52, 76, 101, 101, 101, 101, 101, 101, 101, 101, 101, 101, 101, 101, 76, 56],
         "height":14,
         "id":1,
         "name":"Tile Layer 1",
         "opacity":1,
         "type":"tilelayer",
         "visible":true,
         "width":16,
         "x":0,
         "y":0
        }, 
        {
         "data":[0, 0, 238, 239, 83, 84, 238, 239, 83, 84, 238, 239, 83, 84, 0, 0,
            0, 0, 0, 0, 58, 59, 0, 0, 0, 0, 0, 0, 0, 0, 0, 0,
            0, 0, 0, 0, 83, 84, 0, 0, 0, 0, 0, 0, 0, 0, 0, 0,
            0, 0, 0, 0, 0, 0, 58, 59, 0, 0, 0, 0, 0, 0, 0, 0,
            0, 0, 0, 0, 0, 0, 83, 84, 0, 0, 0, 0, 0, 0, 0, 0,
            0, 0, 0, 0, 0, 0, 0, 0, 0, 0, 0, 0, 0, 0, 0, 0,
            0, 0, 0, 0, 0, 0, 0, 0, 0, 0, 0, 0, 0, 0, 0, 0,
            0, 0, 0, 0, 0, 0, 0, 0, 0, 0, 0, 0, 0, 0, 0, 0,
            0, 0, 0, 0, 0, 0, 0, 0, 0, 0, 0, 0, 0, 0, 0, 0,
            0, 0, 0, 0, 0, 0, 0, 0, 0, 0, 0, 0, 0, 0, 0, 0,
            0, 0, 0, 0, 0, 0, 0, 0, 0, 0, 0, 0, 0, 0, 0, 0,
            0, 0, 0, 0, 0, 0, 0, 0, 0, 0, 0, 0, 0, 0, 0, 0,
            0, 0, 0, 0, 0, 0, 0, 0, 0, 0, 0, 0, 0, 0, 0, 0,
            0, 0, 0, 0, 0, 0, 0, 0, 0, 0, 0, 0, 0, 0, 0, 0],
         "height":14,
         "id":2,
         "name":"Tile Layer 2",
         "opacity":1,
         "type":"tilelayer",
         "visible":true,
         "width":16,
         "x":0,
         "y":0
        }],
 "nextlayerid":3,
 "nextobjectid":1,
 "orientation":"orthogonal",
 "renderorder":"right-down",
 "tiledversion":"1.11.2",
 "tileheight":16,
 "tilesets":[
        {
         "columns":25,
         "firstgid":1,
         "image":"..\/Tiles\/Assets\/Assets.bmp",
         "imageheight":400,
         "imagewidth":400,
         "margin":0,
         "name":"Assets",
         "spacing":0,
         "tilecount":625,
         "tileheight":16,
         "tilewidth":16
        }],
 "tilewidth":16,
 "type":"map",
 "version":"1.10",
 "width":16
}